X:1156
T:Banshee reel
T:McMahon's Reel
M:C|
L:1/8
C:James McMahon
S:Douglas Cole, Ir-Trad, 4/97
R:reel
N:This should be easy for the whistle (no low B,)
N:first an fifth measure s/b |G2 GD EDB,D|
N:see Gerald Trimble's CD
Z:Doug Cole's version St. Paul Slow Session
K:G
|: G2 GD EDED | GFGB d2 Bd| eged BAGA| BAGE E2 (3DEF |
  G2 GD EDED| GFGB d2 Bd| eged BAGA| BAGE E2 D2 :|
|: eaag egge | dBBA B2 (3Bcd| e2 B{c}B gBfB| eBBA B3z|
eaag efge | dBBA B2 Bd| eged BAGA| BAGE E2 D2:|


